src/assets/icons/layers.svg

<svg xmlns="http://www.w3.org/2000/svg" fill="currentColor" viewBox="0 0 24 24">
  <path fill-rule="evenodd" d="M20.5 11.5h-11v7h11v-7ZM8 10v10h14V10H8ZM17 5.5H2V4h15v1.5ZM20 8.5H5V7h15v1.5Z" clip-rule="evenodd"/>
  <path fill-rule="evenodd" d="M2 14.5v-10h1.5v10H2ZM5 17.5v-10h1.5v10H5Z" clip-rule="evenodd"/>
</svg>

<svg widh="100%" height="100%" viewBox="0 0 24 24" fill="current"
  xmlns="http://www.w3.org/2000/svg">
  <path fill-rule="evenodd" clip-rule="evenodd" d="M20.5 11.5H9.5V18.5H20.5V11.5ZM8 10V20H22V10H8Z" />
  <path fill-rule="evenodd" clip-rule="evenodd" d="M17 5.5H2V4H17V5.5Z" />
  <path fill-rule="evenodd" clip-rule="evenodd" d="M20 8.5H5V7H20V8.5Z" />
  <path fill-rule="evenodd" clip-rule="evenodd" d="M2 14.5L2 4.5H3.5L3.5 14.5H2Z" />
  <path fill-rule="evenodd" clip-rule="evenodd" d="M5 17.5L5 7.5H6.5L6.5 17.5H5Z" />
</svg>
